SVG_Azure_All/O365 - Publisher.svg

<?xml version="1.0" encoding="UTF-8" standalone="no"?>
<!-- Generated by Microsoft Visio, SVG Export O365 - Publisher.svg Page-1 -->

<svg
   xmlns:dc="http://purl.org/dc/elements/1.1/"
   xmlns:cc="http://creativecommons.org/ns#"
   xmlns:rdf="http://www.w3.org/1999/02/22-rdf-syntax-ns#"
   xmlns:svg="http://www.w3.org/2000/svg"
   xmlns="http://www.w3.org/2000/svg"
   xmlns:sodipodi="http://sodipodi.sourceforge.net/DTD/sodipodi-0.dtd"
   xmlns:inkscape="http://www.inkscape.org/namespaces/inkscape"
   width="0.78745061in"
   height="0.78740203in"
   viewBox="0 0 56.696397 56.692695"
   xml:space="preserve"
   class="st8"
   version="1.1"
   id="svg74"
   sodipodi:docname="O365 - Publisher.svg"
   style="font-size:12px;overflow:visible;color-interpolation-filters:sRGB;fill:none;fill-rule:evenodd;stroke-linecap:square;stroke-miterlimit:3"
   inkscape:version="0.92.5 (2060ec1f9f, 2020-04-08)"><metadata
   id="metadata80"><rdf:RDF><cc:Work
       rdf:about=""><dc:format>image/svg+xml</dc:format><dc:type
         rdf:resource="http://purl.org/dc/dcmitype/StillImage" /></cc:Work></rdf:RDF></metadata><defs
   id="defs78" /><sodipodi:namedview
   pagecolor="#ffffff"
   bordercolor="#666666"
   borderopacity="1"
   objecttolerance="10"
   gridtolerance="10"
   guidetolerance="10"
   inkscape:pageopacity="0"
   inkscape:pageshadow="2"
   inkscape:window-width="640"
   inkscape:window-height="480"
   id="namedview76"
   showgrid="false"
   inkscape:zoom="1.6252476"
   inkscape:cx="37.795232"
   inkscape:cy="27.250024"
   inkscape:window-x="0"
   inkscape:window-y="0"
   inkscape:window-maximized="0"
   inkscape:current-layer="svg74" />
	<style
   type="text/css"
   id="style2">
	<![CDATA[
		.st1 {fill:#038387;stroke:none;stroke-linecap:butt;stroke-width:18.1976}
		.st2 {fill:#37c6d0;stroke:none;stroke-linecap:butt;stroke-width:18.1976}
		.st3 {fill:#1a9ba1;stroke:none;stroke-linecap:butt;stroke-width:18.1976}
		.st4 {fill:#000000;fill-opacity:0.098;stroke:none;stroke-linecap:butt;stroke-width:18.1976}
		.st5 {fill:#000000;fill-opacity:0.2;stroke:none;stroke-linecap:butt;stroke-width:18.1976}
		.st6 {fill:#f9f7f7;stroke:none;stroke-linecap:butt;stroke-width:18.1976}
		.st7 {fill:none;stroke:none;stroke-linecap:butt;stroke-width:18.1976}
		.st8 {fill:none;fill-rule:evenodd;font-size:12px;overflow:visible;stroke-linecap:square;stroke-miterlimit:3}
	]]>
	</style>

	<g
   id="g72"
   transform="translate(-18.1976,-18.197799)">
		<title
   id="title4">Page-1</title>
		<g
   id="group2494-1"
   transform="translate(18.1976,-34.0157)">
			<title
   id="title6">O365 - Publisher</title>
			<g
   id="group2495-2">
				<title
   id="title8">_32</title>
				<g
   id="shape2496-3"
   transform="translate(38.9764,-7.08661)">
					<title
   id="title10">rect4</title>
					<path
   d="m 0,106.58 a 2.21816,2.32821 -180 0 0 2.22,2.33 H 15.5 a 2.21816,2.32821 -180 0 0 2.22,-2.33 V 68.71 A 2.21816,2.32821 -180 0 0 15.5,66.39 H 2.22 A 2.21816,2.32821 -180 0 0 0,68.71 Z"
   class="st1"
   id="path12"
   inkscape:connector-curvature="0"
   style="fill:#038387;stroke:none;stroke-width:18.19759941;stroke-linecap:butt" />
				</g>
				<g
   id="shape2497-5"
   transform="translate(14.1732,-3.54331)">
					<title
   id="title15">path6</title>
					<path
   d="m 0,95.62 v 10.63 a 2.49094,2.49094 -90 0 0 2.28,2.66 h 30.87 a 2.49094,2.49094 -90 0 0 2.28,-2.66 V 95.62 A 2.48917,2.48917 -90 0 0 33.15,92.96 H 2.28 A 2.48917,2.48917 -90 0 0 0,95.62 Z"
   class="st1"
   id="path17"
   inkscape:connector-curvature="0"
   style="fill:#038387;stroke:none;stroke-width:18.19759941;stroke-linecap:butt" />
				</g>
				<g
   id="shape2498-7"
   transform="translate(14.1732,-28.3465)">
					<title
   id="title20">path8</title>
					<path
   d="M 33.15,84.1 H 2.28 A 2.26772,2.26772 -90 0 0 0,86.36 v 22.55 H 35.43 V 86.36 A 2.26772,2.26772 -90 0 0 33.15,84.1 Z"
   class="st2"
   id="path22"
   inkscape:connector-curvature="0"
   style="fill:#37c6d0;stroke:none;stroke-width:18.19759941;stroke-linecap:butt" />
				</g>
				<g
   id="shape2499-9"
   transform="translate(14.1732,-15.9449)">
					<title
   id="title25">rect10</title>
					<rect
   x="0"
   y="96.504601"
   width="35.433102"
   height="12.4016"
   class="st3"
   id="rect27"
   style="fill:#1a9ba1;stroke:none;stroke-width:18.19759941;stroke-linecap:butt" />
				</g>
				<g
   id="shape2500-11"
   transform="translate(14.1732,-10.6299)">
					<title
   id="title30">path12</title>
					<path
   d="M 15.35,75.24 H 0 v 33.67 h 15.35 a 2.3687,2.3687 -90 0 0 2.37,-2.37 V 77.61 a 2.3687,2.3687 -90 0 0 -2.37,-2.37 z"
   class="st4"
   id="path32"
   inkscape:connector-curvature="0"
   style="fill:#000000;fill-opacity:0.09800002;stroke:none;stroke-width:18.19759941;stroke-linecap:butt" />
				</g>
				<g
   id="shape2501-13"
   transform="translate(14.1732,-8.85827)">
					<title
   id="title35">path14</title>
					<path
   d="M 13.58,75.24 H 0 v 33.67 h 13.58 a 2.3687,2.3687 -90 0 0 2.36,-2.37 V 77.61 a 2.3687,2.3687 -90 0 0 -2.36,-2.37 z"
   class="st5"
   id="path37"
   inkscape:connector-curvature="0"
   style="fill:#000000;fill-opacity:0.2;stroke:none;stroke-width:18.19759941;stroke-linecap:butt" />
				</g>
				<g
   id="shape2502-15"
   transform="translate(14.1732,-12.4016)">
					<title
   id="title40">path16</title>
					<path
   d="M 13.58,78.79 H 0 v 30.12 h 13.58 a 2.3687,2.3687 -90 0 0 2.36,-2.37 V 81.15 a 2.3687,2.3687 -90 0 0 -2.36,-2.36 z"
   class="st5"
   id="path42"
   inkscape:connector-curvature="0"
   style="fill:#000000;fill-opacity:0.2;stroke:none;stroke-width:18.19759941;stroke-linecap:butt" />
				</g>
				<g
   id="shape2503-17"
   transform="translate(14.1732,-12.4016)">
					<title
   id="title45">path18</title>
					<path
   d="M 11.81,78.79 H 0 v 30.12 h 11.81 a 2.3687,2.3687 -90 0 0 2.36,-2.37 V 81.15 a 2.3687,2.3687 -90 0 0 -2.36,-2.36 z"
   class="st5"
   id="path47"
   inkscape:connector-curvature="0"
   style="fill:#000000;fill-opacity:0.2;stroke:none;stroke-width:18.19759941;stroke-linecap:butt" />
				</g>
				<g
   id="shape2504-19"
   transform="translate(3.57487e-7,-14.1732)">
					<title
   id="title50">path20</title>
					<path
   d="M 25.98,108.91 H 2.36 A 2.37047,2.37047 90 0 1 0,106.54 V 82.92 a 2.3687,2.3687 90 0 1 2.36,-2.36 h 23.62 a 2.3687,2.3687 90 0 1 2.37,2.36 v 23.62 a 2.3687,2.3687 90 0 1 -2.37,2.37 z"
   class="st1"
   id="path52"
   inkscape:connector-curvature="0"
   style="fill:#038387;stroke:none;stroke-width:18.19759941;stroke-linecap:butt" />
				</g>
				<g
   id="shape2505-21"
   transform="translate(7.16102,-19.5148)">
					<title
   id="title55">path22</title>
					<path
   d="m 7.07,91.22 a 7.37539,7.37539 90 0 1 4.88,1.41 5.08996,5.08996 90 0 1 1.69,4.13 4.82598,4.82598 90 0 1 -0.83,2.81 5.59665,5.59665 90 0 1 -2.38,2.1 8.08583,8.08583 90 0 1 -3.58,0.75 H 3.47 v 6.49 H 0 V 91.22 Z M 3.47,99.5 H 6.46 A 3.87815,3.87815 -90 0 0 9.09,98.72 1.94882,1.94882 -90 0 0 9.98,96.9 c 0,-1.95 -1.14,-2.93 -3.42,-2.93 H 3.47 Z"
   class="st6"
   id="path57"
   inkscape:connector-curvature="0"
   style="fill:#f9f7f7;stroke:none;stroke-width:18.19759941;stroke-linecap:butt" />
				</g>
				<g
   id="shape2506-23">
					<title
   id="title60">rect24</title>
					<rect
   x="0"
   y="52.213299"
   width="56.692902"
   height="56.692902"
   class="st7"
   id="rect62"
   style="fill:none;stroke:none;stroke-width:18.19759941;stroke-linecap:butt" />
				</g>
				<g
   id="shape2507-25"
   transform="translate(49.6063,-7.08661)">
					<title
   id="title65">rect26</title>
					<rect
   x="0"
   y="66.386497"
   width="1.77165"
   height="42.519699"
   class="st5"
   id="rect67"
   style="fill:#000000;fill-opacity:0.2;stroke:none;stroke-width:18.19759941;stroke-linecap:butt" />
				</g>
			</g>
		</g>
	</g>
</svg>

<?xml version="1.0" encoding="UTF-8" standalone="no"?>
<!DOCTYPE svg PUBLIC "-//W3C//DTD SVG 1.1//EN" "http://www.w3.org/Graphics/SVG/1.1/DTD/svg11.dtd">
<!-- Generated by Microsoft Visio, SVG Export O365 - Publisher.svg Page-1 -->
<svg xmlns="http://www.w3.org/2000/svg" xmlns:xlink="http://www.w3.org/1999/xlink" xmlns:ev="http://www.w3.org/2001/xml-events"
		width="1.29289in" height="1.51259in" viewBox="0 0 93.088 108.906" xml:space="preserve" color-interpolation-filters="sRGB"
		class="st8">
	<style type="text/css">
	<![CDATA[
		.st1 {fill:#038387;stroke:none;stroke-linecap:butt;stroke-width:18.1976}
		.st2 {fill:#37c6d0;stroke:none;stroke-linecap:butt;stroke-width:18.1976}
		.st3 {fill:#1a9ba1;stroke:none;stroke-linecap:butt;stroke-width:18.1976}
		.st4 {fill:#000000;fill-opacity:0.098;stroke:none;stroke-linecap:butt;stroke-width:18.1976}
		.st5 {fill:#000000;fill-opacity:0.2;stroke:none;stroke-linecap:butt;stroke-width:18.1976}
		.st6 {fill:#f9f7f7;stroke:none;stroke-linecap:butt;stroke-width:18.1976}
		.st7 {fill:none;stroke:none;stroke-linecap:butt;stroke-width:18.1976}
		.st8 {fill:none;fill-rule:evenodd;font-size:12px;overflow:visible;stroke-linecap:square;stroke-miterlimit:3}
	]]>
	</style>

	<g>
		<title>Page-1</title>
		<g id="group2468-1" transform="translate(18.1976,-34.0157)">
			<title>O365 - Publisher</title>
			<g id="group2469-2">
				<title>_32</title>
				<g id="shape2470-3" transform="translate(38.9764,-7.08661)">
					<title>rect4</title>
					<path d="M0 106.58 A2.21816 2.32821 -180 0 0 2.22 108.91 L15.5 108.91 A2.21816 2.32821 -180 0 0 17.72 106.58
								 L17.72 68.71 A2.21816 2.32821 -180 0 0 15.5 66.39 L2.22 66.39 A2.21816 2.32821 -180 0 0 -0 68.71
								 L0 106.58 Z" class="st1"/>
				</g>
				<g id="shape2471-5" transform="translate(14.1732,-3.54331)">
					<title>path6</title>
					<path d="M0 95.62 L0 106.25 A2.49094 2.49094 -90 0 0 2.28 108.91 L33.15 108.91 A2.49094 2.49094 -90 0 0 35.43
								 106.25 L35.43 95.62 A2.48917 2.48917 -90 0 0 33.15 92.96 L2.28 92.96 A2.48917 2.48917 -90 0 0 0
								 95.62 Z" class="st1"/>
				</g>
				<g id="shape2472-7" transform="translate(14.1732,-28.3465)">
					<title>path8</title>
					<path d="M33.15 84.1 L2.28 84.1 A2.26772 2.26772 -90 0 0 -0 86.36 L0 108.91 L35.43 108.91 L35.43 86.36 A2.26772
								 2.26772 -90 0 0 33.15 84.1 Z" class="st2"/>
				</g>
				<g id="shape2473-9" transform="translate(14.1732,-15.9449)">
					<title>rect10</title>
					<rect x="0" y="96.5046" width="35.4331" height="12.4016" class="st3"/>
				</g>
				<g id="shape2474-11" transform="translate(14.1732,-10.6299)">
					<title>path12</title>
					<path d="M15.35 75.24 L0 75.24 L0 108.91 L15.35 108.91 A2.3687 2.3687 -90 0 0 17.72 106.54 L17.72 77.61 A2.3687
								 2.3687 -90 0 0 15.35 75.24 Z" class="st4"/>
				</g>
				<g id="shape2475-13" transform="translate(14.1732,-8.85827)">
					<title>path14</title>
					<path d="M13.58 75.24 L0 75.24 L0 108.91 L13.58 108.91 A2.3687 2.3687 -90 0 0 15.94 106.54 L15.94 77.61 A2.3687
								 2.3687 -90 0 0 13.58 75.24 Z" class="st5"/>
				</g>
				<g id="shape2476-15" transform="translate(14.1732,-12.4016)">
					<title>path16</title>
					<path d="M13.58 78.79 L0 78.79 L0 108.91 L13.58 108.91 A2.3687 2.3687 -90 0 0 15.94 106.54 L15.94 81.15 A2.3687
								 2.3687 -90 0 0 13.58 78.79 Z" class="st5"/>
				</g>
				<g id="shape2477-17" transform="translate(14.1732,-12.4016)">
					<title>path18</title>
					<path d="M11.81 78.79 L0 78.79 L0 108.91 L11.81 108.91 A2.3687 2.3687 -90 0 0 14.17 106.54 L14.17 81.15 A2.3687
								 2.3687 -90 0 0 11.81 78.79 Z" class="st5"/>
				</g>
				<g id="shape2478-19" transform="translate(3.57487E-07,-14.1732)">
					<title>path20</title>
					<path d="M25.98 108.91 L2.36 108.91 A2.37047 2.37047 90 0 1 0 106.54 L0 82.92 A2.3687 2.3687 90 0 1 2.36 80.56
								 L25.98 80.56 A2.3687 2.3687 90 0 1 28.35 82.92 L28.35 106.54 A2.3687 2.3687 90 0 1 25.98 108.91
								 Z" class="st1"/>
				</g>
				<g id="shape2479-21" transform="translate(7.16102,-19.5148)">
					<title>path22</title>
					<path d="M7.07 91.22 A7.37539 7.37539 90 0 1 11.95 92.63 A5.08996 5.08996 90 0 1 13.64 96.76 A4.82598 4.82598
								 90 0 1 12.81 99.57 A5.59665 5.59665 90 0 1 10.43 101.67 A8.08583 8.08583 90 0 1 6.85 102.42 L3.47
								 102.42 L3.47 108.91 L0 108.91 L0 91.22 L7.07 91.22 ZM3.47 99.5 L6.46 99.5 A3.87815 3.87815 -90 0
								 0 9.09 98.72 A1.94882 1.94882 -90 0 0 9.98 96.9 C9.98 94.95 8.84 93.97 6.56 93.97 L3.47 93.97 L3.47
								 99.5 Z" class="st6"/>
				</g>
				<g id="shape2480-23">
					<title>rect24</title>
					<rect x="0" y="52.2133" width="56.6929" height="56.6929" class="st7"/>
				</g>
				<g id="shape2481-25" transform="translate(49.6063,-7.08661)">
					<title>rect26</title>
					<rect x="0" y="66.3865" width="1.77165" height="42.5197" class="st5"/>
				</g>
			</g>
		</g>
	</g>
</svg>
